24x24/actions/fcitx-rime-sync.svg

<svg height="24" width="24" xmlns="http://www.w3.org/2000/svg"><path d="m8 2a5 5 0 0 0 -4.604 3.049 4 4 0 0 0 -3.396 3.951 4 4 0 0 0 3.809 3.99v.01h9.714a2.477 2.477 0 0 0 2.477-2.477 2.476 2.476 0 0 0 -1.178-2.105 2.49 2.49 0 0 0 .178-.918 2.5 2.5 0 0 0 -2.422-2.496 5 5 0 0 0 -4.578-3.004zm2 2 2 3h-1v3h-2v-3h-1zm-5 1h2v3h1l-2 3-2-3h1z" fill="#8b9cbe" transform="translate(4 4)"/></svg>

<svg xmlns="http://www.w3.org/2000/svg" width="24" height="24"><defs><style id="current-color-scheme" type="text/css"></style></defs><path d="M8 2a5 5 0 0 0-4.604 3.049A4 4 0 0 0 0 9a4 4 0 0 0 3.809 3.99V13h9.714A2.477 2.477 0 0 0 16 10.523a2.476 2.476 0 0 0-1.178-2.105A2.49 2.49 0 0 0 15 7.5a2.5 2.5 0 0 0-2.422-2.496A5 5 0 0 0 8 2zm2 2 2 3h-1v3H9V7H8zM5 5h2v3h1l-2 3-2-3h1z" style="fill:currentColor;color:#8b9cbe" transform="translate(4 4)"/></svg>
